X:1
T:Title
%%score { ( 1 4 ) | ( 2 3 ) }
L:1/8
M:6/8
K:C
V:1 treble nm="Grand Piano"
V:4 treble 
V:2 bass 
V:3 bass 
V:1
 z3 z2[Q:1/4=100] [EG] | [EG]2 [EG] [EG][CE][EG] | A3 c2 A | G2 E .[G,B,D]2 [G,DF] | %4
[M:5/8] [G,CE]-[G,CE]- [G,CE]3 |[M:1/8] [CEG] |[M:3/4] [CEG]2 [CEG][CEG] E[CEG] | A3 c2 A | %8
 G2 c[Fd] [Ec][DB] |[M:5/8] [Ec]-[Ec]- [Ec]3 |[M:1/8] G |[M:3/4] z2 z d z2 | [EG]4 z2 | %13
 [G,DF]3 [B,D]3 | [G,EG]3 [G,CE]2 [FG] | [Ec]2 [Ec]d z [B,FA] | [CEG]2 [G,CE] [CEG]2 [G,CG] | %17
 [Ec]2 [Ec][Fd] cB |[M:5/8] [Ec]-[Ec]- [Ec]3 |] %19
V:2
 z3 z2 [C,C] | [C,C]2 [C,C] .[C,C]2 [C,C] | [F,CF]3 [F,A,F]2 [F,CF] | [G,CE]2 [G,C] z GG,, | %4
[M:5/8] C,-C,- C,3 |[M:1/8] C, |[M:3/4] C,2 .C,2 CC, | [F,CF]3 [F,A,F]2 [F,CF] | %8
 [G,CE]2 [G,E] [G,,G,]2 [G,,G,] |[M:5/8] [C,G,]-[C,G,]- [C,G,]3 |[M:1/8] [G,F] | %11
[M:3/4] [C,G,]2 .[C,^G,]2[K:treble] c[K:bass]C, | z2 A, C,3 | G,,3 G,3 | C,3 C,2 G, | %15
 [C,G,]2 .[C,^G,]2[K:treble] c[K:bass]C, | C,2 C, C,2 E, | G,2 .G,2 E[G,D] | %18
[M:5/8] [C,G,]-[C,G,]- [C,G,]3 |] %19
V:3
 x6 | x6 | x6 | z3 .G,,3 |[M:5/8] x5 |[M:1/8] x |[M:3/4] z2 z .C,3 | x6 | x6 |[M:5/8] x5 | %10
[M:1/8] x |[M:3/4] z2 z .[C,A,]3[K:treble][K:bass] | C,4 z2 | x6 | x6 | %15
 z2 z .[C,A,]3[K:treble][K:bass] | x6 | z2 z .[G,,G,]3 |[M:5/8] x5 |] %19
V:4
 x6 | x6 | x6 | x6 |[M:5/8] x5 |[M:1/8] x |[M:3/4] x6 | x6 | x6 |[M:5/8] x5 |[M:1/8] x | %11
[M:3/4] [Ec]2 [Ec] F2 [B,FA] | C2 z [G,CE]3 | x6 | x6 | z2 z .F3 | x6 | x6 |[M:5/8] x5 |] %19

